dist/img/education/youtube.svg

<svg width="150" height="150" viewBox="0 0 150 150" fill="none" xmlns="http://www.w3.org/2000/svg">
<rect width="150" height="150" fill="white"/>
<path d="M112.381 56.0975C111.475 52.7313 108.821 50.0772 105.455 49.1709C99.305 47.4878 74.7059 47.4878 74.7059 47.4878C74.7059 47.4878 50.1068 47.4878 43.9571 49.1062C40.6556 50.0124 37.9368 52.7313 37.0305 56.0975C35.4121 62.2472 35.4121 74.9999 35.4121 74.9999C35.4121 74.9999 35.4121 87.8173 37.0305 93.9024C37.9368 97.2686 40.5909 99.9227 43.9571 100.829C50.1716 102.512 74.7059 102.512 74.7059 102.512C74.7059 102.512 99.305 102.512 105.455 100.894C108.821 99.9874 111.475 97.3333 112.381 93.9671C114 87.8174 114 75.0647 114 75.0647C114 75.0647 114.064 62.2472 112.381 56.0975V56.0975Z" fill="#FF0000"/>
<path d="M87.3291 74.9999L66.873 63.2183V86.7816L87.3291 74.9999Z" fill="white"/>
</svg>

<svg width="150" height="150" fill="none" xmlns="http://www.w3.org/2000/svg"><path fill="#fff" d="M0 0h150v150H0z"/><path d="M112.381 56.097a9.846 9.846 0 00-6.926-6.926c-6.15-1.683-30.75-1.683-30.75-1.683s-24.598 0-30.748 1.618c-3.301.906-6.02 3.625-6.926 6.991C35.412 62.247 35.412 75 35.412 75s0 12.817 1.619 18.902a9.847 9.847 0 006.926 6.927c6.215 1.683 30.749 1.683 30.749 1.683s24.599 0 30.749-1.618a9.846 9.846 0 006.926-6.927C114 87.817 114 75.065 114 75.065s.064-12.818-1.619-18.968z" fill="red"/><path d="M87.33 75L66.872 63.218v23.564L87.329 75z" fill="#fff"/></svg>
